!!!OTL: FUCHS DU HAST DIE GANS GESTOHLEN
!!!ARE: Europa, Mitteleuropa, Deutschland
!!!SCT: F0243
!!!YEM: Copyright 1995, estate of Helmut Schaffrath.
**kern
*ICvox
*Ivox
*M2/4
*k[b-]
*F:
=1
{8f
8g
8a
8b-
=2
8cc
8cc
8cc
8cc}
=3
{8dd
8b-
8ff
8dd
=4
4cc
4r}
=5
{8dd
8b-
8ff
8dd
=6
4cc
4r}
=7
{8cc
8b-
8b-
8b-
=8
8b-
8a
8a
8a}
=9
{8a
8g
8g
8c
=10
4a
4r}
=11
{8cc
8b-
8b-
8b-
=12
8b-
8a
8a
8a}
=13
{8a
8g
8g
8a
=14
4f
4r}
==
!!!AGN: Jugend - Lied, Kinder, Spiel
!!!ONB: ESAC (Essen Associative Code) Database: FINK
!!!AMT: simple duple
!!!AIN: vox
!!!EED: Helmut Schaffrath
!!!EEV: 1.0
*-
